X: 30568
T: Once In A Blue Moose
R: reel
M: 4/4
K: Dmajor
DE|:F2BF AFEF|D2BG A2DE|F~D3 ADF/G/A|BAAF FEDE|
F2BF AFEF|D2BG A2DE|F~D3 BDAF|1 EFFE D3E:|2 EFFE DEF/G/A||
~B3c cddc|cBAF FEDE|F~D3 ADF/G/A|BAAF FEF/G/A|
~B3c cddc|cBAF FEDE|F~D3 BDAF|EFFE DEF/G/A|
~B3c cddc|cBAF FEDE|F~D3 ADF/G/A|B2AF FEDE|
F2BF AFEF|D2 BG A2 DE|F~D3 BDAF|EFFE D3E||

